X:1
T:Cornwall, 88.68.86
T:Cornwall, 88.68.86
T:Samuel Sebastian Wesley, 1872
T:Public Domain Courtesy of the Cyber Hymnal™
C:Samuel Sebastian Wesley, 1872
Z:Public Domain
Z:Courtesy of the Cyber Hymnal™
%%score ( 1 2 ) ( 3 4 )
L:1/8
Q:1/4=110
M:4/4
K:D
V:1 treble 
V:2 treble 
V:3 bass 
V:4 bass 
V:1
 [DF]2 | [DA]2 (FE) D2 [Fd]2 | [Fc]2 B2 A2 (FE) | D2 [EG]2 [DF]2 [FB]2 | %4
 [FA]2 [^E^G]2 [Fc]2 [Fd]2 | [^Ec]2 F2 [FA]2 [E^G]2 | F6 F2 | [EA]2 [FA]2 [EG]2 [EA]2 | %8
 [DF]2 [DF]2 [CE]2 [Fd]2 | [Gc]2 F2 [FB]2 [EB]2 | [EA]2 (GF) [EG]2 [CE]2 | %11
 [DA]2 [DG]2 [DF]2 [CE]2 | D6 |] %13
V:2
 x2 | x2 C2 D2 x2 | x2 (FE) A2 C2 | D2 x6 | x8 | x8 | F6 F2 | x8 | x8 | x2 F2 x4 | x2 ^D2 x4 | x8 | %12
 D6 |] %13
V:3
 D,2 | [A,,E,]2 (A,G,) [B,,F,]2 [B,D]2 | [A,D]2 (DC) [F,D]2 (A,G,) | %3
 [B,,F,]2 [C,A,]2 [D,A,]2 [B,,D]2 | [C,C]2 [B,,C]2 [A,,C]2 (B,A,) | [C,^G,]2 [D,B,]2 [C,C]2 (CB,) | %6
 [F,A,]6 [D,D]2 | [A,,D]2 [A,,C]2 [B,,D]2 [C,A,]2 | [D,A,]2 [F,A,]2 [A,C]2 [B,D]2 | %9
 [B,E]2 [A,C]2 [G,B,]2 [G,B,]2 | [F,=C]2 B,2 [E,B,]2 [G,A,]2 | [F,A,]2 [B,,D]2 [A,,A,]2 (A,G,) | %12
 [D,F,]6 |] %13
V:4
 D,2 | x2 A,,2 x4 | x2 G,2 x A,,2 x | x8 | x6 B,,2 | x6 C,2 | x8 | x8 | x8 | x8 | x2 B,2 x4 | %11
 x6 A,,2 | x6 |] %13

